X: 20411
T: John Donoghue's
R: jig
M: 6/8
K: Amajor
e2e ecA|Ace ecA|dfd cec|A~B2 Bcd|
e2e ecA|Ace ecA|dfd cec|1 BcB Acd:|BcB Ace||
a2f efc|dfd cBA|dfd cec|A~B2 Bce|
a2f efc|dfd cBA|dfd cec|BcB Ace|
a2f efc|dfd cBA|dfd cec|BcB Bcd|
e2e ecA|Ace ecA|dfd cec|BcB A3||

